svg/map/aiming_fill.svg

<?xml version="1.0" encoding="UTF-8"?>
<svg width="24px" height="24px" viewBox="0 0 24 24" version="1.1" xmlns="http://www.w3.org/2000/svg" xmlns:xlink="http://www.w3.org/1999/xlink">
    <title>aiming_fill</title>
    <g id="页面-1" stroke="none" stroke-width="1" fill="none" fill-rule="evenodd">
        <g id="Map" transform="translate(-528.000000, -48.000000)" fill-rule="nonzero">
            <g id="aiming_fill" transform="translate(528.000000, 48.000000)">
                 <path d="M24,0 L24,24 L0,24 L0,0 L24,0 Z M12.5934901,23.257841 L12.5819402,23.2595131 L12.5108777,23.2950439 L12.4918791,23.2987469 L12.4918791,23.2987469 L12.4767152,23.2950439 L12.4056548,23.2595131 C12.3958229,23.2563662 12.3870493,23.2590235 12.3821421,23.2649074 L12.3780323,23.275831 L12.360941,23.7031097 L12.3658947,23.7234994 L12.3769048,23.7357139 L12.4804777,23.8096931 L12.4953491,23.8136134 L12.4953491,23.8136134 L12.5071152,23.8096931 L12.6106902,23.7357139 L12.6232938,23.7196733 L12.6232938,23.7196733 L12.6266527,23.7031097 L12.609561,23.275831 C12.6075724,23.2657013 12.6010112,23.2592993 12.5934901,23.257841 L12.5934901,23.257841 Z M12.8583906,23.1452862 L12.8445485,23.1473072 L12.6598443,23.2396597 L12.6498822,23.2499052 L12.6498822,23.2499052 L12.6471943,23.2611114 L12.6650943,23.6906389 L12.6699349,23.7034178 L12.6699349,23.7034178 L12.678386,23.7104931 L12.8793402,23.8032389 C12.8914285,23.8068999 12.9022333,23.8029875 12.9078286,23.7952264 L12.9118235,23.7811639 L12.8776777,23.1665331 C12.8752882,23.1545897 12.8674102,23.1470016 12.8583906,23.1452862 L12.8583906,23.1452862 Z M12.1430473,23.1473072 C12.1332178,23.1423925 12.1221763,23.1452606 12.1156365,23.1525954 L12.1099173,23.1665331 L12.0757714,23.7811639 C12.0751323,23.7926639 12.0828099,23.8018602 12.0926481,23.8045676 L12.108256,23.8032389 L12.3092106,23.7104931 L12.3186497,23.7024347 L12.3186497,23.7024347 L12.3225043,23.6906389 L12.340401,23.2611114 L12.337245,23.2485176 L12.337245,23.2485176 L12.3277531,23.2396597 L12.1430473,23.1473072 Z" id="MingCute" fill-rule="nonzero"></path>
                <path d="M13,19.9381 L13,21 C13,21.5523 12.5523,22 12,22 C11.48715,22 11.0644908,21.613973 11.0067275,21.1166239 L11,21 L11,19.9381 C11.3276,19.979 11.6613,20 12,20 C12.2258,20 12.4493778,19.9906667 12.6704074,19.9723259 L13,19.9381 Z M13,4.06189 C16.6187,4.51314 19.4869,7.38128 19.9381,11 L19,11 C18.4477,11 18,11.4477 18,12 C18,12.5523 18.4477,13 19,13 L19.9381,13 C19.4869,16.6187 16.6187,19.4869 13,19.9381 L13,19 C13,18.4477 12.5523,18 12,18 C11.4477,18 11,18.4477 11,19 L11,19.9381 C7.38128,19.4869 4.51314,16.6187 4.06189,13 L5,13 C5.55228,13 6,12.5523 6,12 C6,11.4477 5.55228,11 5,11 L4.06189,11 C4.02104,11.3276 4,11.6613 4,12 C4,12.3387 4.02104,12.6724 4.06189,13 L3,13 C2.44772,13 2,12.5523 2,12 C2,11.4477 2.44772,11 3,11 L4.06189,11 C4.51314,7.38128 7.38128,4.51314 11,4.06189 L11,5 C11,5.55228 11.4477,6 12,6 C12.5523,6 13,5.55228 13,5 L13,4.06189 Z M12,10.5 C11.1716,10.5 10.5,11.1716 10.5,12 C10.5,12.8284 11.1716,13.5 12,13.5 C12.8284,13.5 13.5,12.8284 13.5,12 C13.5,11.1716 12.8284,10.5 12,10.5 Z M21,11 C21.5523,11 22,11.4477 22,12 C22,12.5523 21.5523,13 21,13 L19.9381,13 C19.979,12.6724 20,12.3387 20,12 C20,11.6613 19.979,11.3276 19.9381,11 L21,11 Z M12,2 C12.5523,2 13,2.44772 13,3 L13,4.06189 C12.6724,4.02104 12.3387,4 12,4 C11.6613,4 11.3276,4.02104 11,4.06189 L11,3 C11,2.44772 11.4477,2 12,2 Z" id="形状" fill="#09244B"></path>
            </g>
        </g>
    </g>
</svg>

<svg xmlns="http://www.w3.org/2000/svg" width="24" height="24"><g fill="none" fill-rule="nonzero"><path d="M24 0v24H0V0h24ZM12.593 23.258l-.011.002-.071.035-.02.004-.014-.004-.071-.035c-.01-.004-.019-.001-.024.005l-.004.01-.017.428.005.02.01.013.104.074.015.004.012-.004.104-.074.012-.016.004-.017-.017-.427c-.002-.01-.009-.017-.017-.018Zm.265-.113-.013.002-.185.093-.01.01-.003.011.018.43.005.012.008.007.201.093c.012.004.023 0 .029-.008l.004-.014-.034-.614c-.003-.012-.01-.02-.02-.022Zm-.715.002a.023.023 0 0 0-.027.006l-.006.014-.034.614c0 .012.007.02.017.024l.015-.002.201-.093.01-.008.004-.011.017-.43-.003-.012-.01-.01-.184-.092Z"/><path fill="#09244B" d="M13 19.938V21a1 1 0 0 1-1.993.117L11 21v-1.062a8.069 8.069 0 0 0 1.67.034l.33-.034Zm0-15.876A8.004 8.004 0 0 1 19.938 11H19a1 1 0 1 0 0 2h.938A8.004 8.004 0 0 1 13 19.938V19a1 1 0 1 0-2 0v.938A8.004 8.004 0 0 1 4.062 13H5a1 1 0 1 0 0-2h-.938a8.079 8.079 0 0 0 0 2H3a1 1 0 1 1 0-2h1.062A8.004 8.004 0 0 1 11 4.062V5a1 1 0 1 0 2 0v-.938ZM12 10.5a1.5 1.5 0 1 0 0 3 1.5 1.5 0 0 0 0-3Zm9 .5a1 1 0 1 1 0 2h-1.062a8.069 8.069 0 0 0 0-2H21Zm-9-9a1 1 0 0 1 1 1v1.062a8.079 8.079 0 0 0-2 0V3a1 1 0 0 1 1-1Z"/></g></svg>
